!!!OTL: Ach Gott in deinem hoechsten Thron
!!!ARE: Europa, Mitteleuropa, Deutschland
!!!SCT: A0390B
!!!YEM: Copyright 1995, estate of Helmut Schaffrath.
**kern
*ICvox
*Ivox
!! Mixed meters:  4/2; 6/2
*M6/2
*k[]
*C:
{2cc
=1
2cc
2cc
2b
2cc
=2
2dd
2cc
1b
2r}
{2b
=3
*M4/2
2cc
2dd
2ee
2cc
=4
1.dd
4cc
4b
=5
2a
2g
1a
=6
*M6/2
1g
2r}
{2g
2g
2a
=7
*M4/2
1b
2cc
[2b
=8
2b]
4a
4g
2a
2g
=9
1e
2r}
{2a
=10
2a
2a
2a
2a
=11
2g
2e
1c
=12
2r}
{2c
2g
2a
=13
2b
2cc
2dd
2dd
=14
1cc
1r}
=15
{1cc
2b
2a
=16
2g
2g
2.c
4d
=17
4e
4f
1g
4f
4e
=18
1d
2c}
==
!!!AGN: Romanze, Ballade, Lied, religioeses Lied
!! Hs. aus dem 16. Jh.
!!!ONB: ESAC (Essen Associative Code) Database: ALTDEU
!!!AMT: irregular
!!!AIN: vox
!!!EED: Helmut Schaffrath
!!!EEV: 1.0
*-
